^MF0950-UF1302/html/img/Apartado313/mapaImagen.svg

<?xml version="1.0" encoding="UTF-8" standalone="no"?>
<!-- Created with Inkscape (http://www.inkscape.org/) -->

<svg
   width="800"
   height="256"
   viewBox="0 0 800 256"
   version="1.1"
   id="mapaImagen"
   sodipodi:docname="mapaImagen.svg"
   inkscape:version="1.2.2 (732a01da63, 2022-12-09)"
   style="background-color:black"
   xml:space="preserve"
   inkscape:export-filename="mapaImagen.png"
   inkscape:export-xdpi="96"
   inkscape:export-ydpi="96"
   xmlns:inkscape="http://www.inkscape.org/namespaces/inkscape"
   xmlns:sodipodi="http://sodipodi.sourceforge.net/DTD/sodipodi-0.dtd"
   xmlns:xlink="http://www.w3.org/1999/xlink"
   xmlns="http://www.w3.org/2000/svg"
   xmlns:svg="http://www.w3.org/2000/svg"><defs
     id="InkspaceDefs" /><style
     id="svgStyle">
g { stroke:green;stroke-width:6;fill:none; }
text { font-size:26px;font-family:Arial;text-align:center;text-anchor:middle;fill:green;stroke:green;stroke-width:1;transition:.7s; }
#GooglePath, #WikipediaPath, #YoutubePath { fill:black;transition:.7s; }
#Google:hover #GooglePath, #Wikipedia:hover #WikipediaPath, #Youtube:hover #YoutubePath { stroke:grey;fill:green; }
#Google:hover text, #Wikipedia:hover text, #Youtube:hover text { fill:black;stroke:black;transform:scale(1.2); }
#GoogleText { transform-origin:127.84766px 134.72852px; }
#WikipediaText { transform-origin:400.39355px 134.72217px; }
#YoutubeText { transform-origin:672.50146px 137.15334px; }
</style><sodipodi:namedview
     id="InkscapeView"
     pagecolor="#505050"
     bordercolor="#ffffff"
     borderopacity="1"
     inkscape:showpageshadow="0"
     inkscape:pageopacity="0"
     inkscape:pagecheckerboard="1"
     inkscape:deskcolor="#505050"
     inkscape:document-units="px"
     showgrid="false"
     inkscape:zoom="1.51125"
     inkscape:cx="399.99999"
     inkscape:cy="127.70885"
     inkscape:window-width="1920"
     inkscape:window-height="1017"
     inkscape:window-x="-8"
     inkscape:window-y="-8"
     inkscape:window-maximized="1"
     inkscape:current-layer="Capa1" /><g
     inkscape:label="Capa 1"
     inkscape:groupmode="layer"
     id="Capa1"
     pointer-events="all"><a
       id="Google"
       target="_blank"
       href="https://www.google.com/"
       xlink:href="https://www.google.com/"><title
         id="GoogleTitle">Ir a Google</title><rect
         id="GooglePath"
         width="250"
         height="250"
         x="3"
         y="3" /><text
         xml:space="preserve"
         x="127.84766"
         y="134.72852"
         id="GoogleText">Google</text></a><a
       id="Wikipedia"
       target="_blank"
       href="https://es.wikipedia.org/"
       xlink:href="https://es.wikipedia.org/"><title
         id="WikipediaTitle">Ir a Wikipedia</title><circle
         id="WikipediaPath"
         cx="400"
         cy="128"
         r="125" /><text
         xml:space="preserve"
         x="400.39355"
         y="134.72217"
         id="WikipediaText">Wikipedia</text></a><a
       id="Youtube"
       target="_blank"
       href="https://www.youtube.com/"
       xlink:href="https://www.youtube.com/"><title
         id="YoutubeTitle">Ir a Youtube</title><path
         id="YoutubePath"
         d="M 672.0005,7.8132792 706.7394,91.354115 793.12387,100.23832 728.20894,160.75309 746.8587,249.78413 672.0005,203.64394 597.1413,249.78413 615.79106,160.75309 550.87613,100.23832 637.26059,91.354115 Z" /><text
         xml:space="preserve"
         x="672.50146"
         y="137.15334"
         id="YoutubeText"
         style="display:inline">Youtube</text></a></g></svg>

<?xml version="1.0" encoding="UTF-8"?>
<!-- Created with Inkscape (http://www.inkscape.org/) -->
<svg id="mapaImagen" width="800" height="256" style="background-color:black" version="1.1" viewBox="0 0 800 256" xml:space="preserve"
	xmlns="http://www.w3.org/2000/svg"
	xmlns:xlink="http://www.w3.org/1999/xlink">
	<style id="svgStyle">
g { stroke:lightgreen;stroke-width:6;fill:none; }
text { font-size:26px;font-family:Arial;text-align:center;text-anchor:middle;fill:lightgreen;stroke:lightgreen;stroke-width:1;transition:.7s; }
#GooglePath, #WikipediaPath, #YoutubePath { fill:black;transition:.7s; }
#Google:hover #GooglePath, #Wikipedia:hover #WikipediaPath, #Youtube:hover #YoutubePath { stroke:grey;fill:lightgreen; }
#Google:hover text, #Wikipedia:hover text, #Youtube:hover text { fill:black;stroke:black;transform:scale(1.2); }
#GoogleText { transform-origin:127.84766px 134.72852px; }
#WikipediaText { transform-origin:400.39355px 134.72217px; }
#YoutubeText { transform-origin:672.50146px 137.15334px; }
	</style>
	<g pointer-events="all">
		<a id="Google" href="https://www.google.com/" target="_blank" xlink:href="https://www.google.com/">
			<title id="GoogleTitle">Ir a Google</title>
			<rect id="GooglePath" x="3" y="3" width="250" height="250"/>
			<text id="GoogleText" x="127.84766" y="134.72852" xml:space="preserve">Google</text>
		</a>
		<a id="Wikipedia" href="https://es.wikipedia.org/" target="_blank" xlink:href="https://es.wikipedia.org/">
			<title id="WikipediaTitle">Ir a Wikipedia</title>
			<circle id="WikipediaPath" cx="400" cy="128" r="125"/>
			<text id="WikipediaText" x="400.39355" y="134.72217" xml:space="preserve">Wikipedia</text>
		</a>
		<a id="Youtube" href="https://www.youtube.com/" target="_blank" xlink:href="https://www.youtube.com/">
			<title id="YoutubeTitle">Ir a Youtube</title>
			<path id="YoutubePath" d="m672 7.8133 34.739 83.541 86.384 8.8842-64.915 60.515 18.65 89.031-74.858-46.14-74.859 46.14 18.65-89.031-64.915-60.515 86.384-8.8842z"/>
			<text id="YoutubeText" x="672.50146" y="137.15334" xml:space="preserve">Youtube</text>
		</a>
	</g>
</svg>
